movekom_app/assets/images/electricity.svg

<svg enable-background="new 0 0 128 128" height="128" viewBox="0 0 128 128" width="128" xmlns="http://www.w3.org/2000/svg"><path d="m100 48h-17.051l23.707-35.563c1.637-2.453 1.789-5.609.398-8.211-1.394-2.601-4.105-4.226-7.054-4.226h-40c-2.871 0-5.523 1.539-6.945 4.031l-32 56c-1.414 2.477-1.406 5.516.027 7.984 1.429 2.469 4.066 3.985 6.918 3.985h26.215l-25.16 44.031c-1.988 3.477-1.094 7.891 2.09 10.328 1.441 1.102 3.152 1.641 4.852 1.641 2.063 0 4.109-.789 5.66-2.344l64-64c2.289-2.289 2.973-5.727 1.734-8.719-1.239-2.984-4.157-4.937-7.391-4.937zm-64 72 29.125-50.969s0-.742 0-1.031c0-2.211-1.789-4-4-4h-33.125l32-56h40l-27.582 41.375s-.918 1.656-.918 2.625c0 2.211 1.789 4 4 4h24.5z" fill="#03a9f4"/></svg>

<?xml version="1.0" ?><!DOCTYPE svg  PUBLIC '-//W3C//DTD SVG 1.1//EN'  'http://www.w3.org/Graphics/SVG/1.1/DTD/svg11.dtd'><svg enable-background="new 0 0 128 128" height="128px" id="Layer_1" version="1.1" viewBox="0 0 128 128" width="128px" xml:space="preserve" xmlns="http://www.w3.org/2000/svg" xmlns:xlink="http://www.w3.org/1999/xlink"><path d="M100,48H82.949l23.707-35.563c1.637-2.453,1.789-5.609,0.398-8.211C105.66,1.625,102.949,0,100,0H60  c-2.871,0-5.523,1.539-6.945,4.031l-32,56c-1.414,2.477-1.406,5.516,0.027,7.984C22.511,70.484,25.148,72,28,72h26.215  l-25.16,44.031c-1.988,3.477-1.094,7.891,2.09,10.328c1.441,1.102,3.152,1.641,4.852,1.641c2.063,0,4.109-0.789,5.66-2.344l64-64  c2.289-2.289,2.973-5.727,1.734-8.719C106.152,49.953,103.234,48,100,48z M36,120l29.125-50.969c0,0,0-0.742,0-1.031  c0-2.211-1.789-4-4-4H28L60,8h40L72.418,49.375c0,0-0.918,1.656-0.918,2.625c0,2.211,1.789,4,4,4H100L36,120z" fill="#03A9F4"/></svg>
